X:28
M:9/8
L:1/8
K:G
d | BGG dBB eAA | BGG dBB "tr"g2 d | 
d | "tr"g3 dcB ecA | "tr"g3 dBd "tr"g2 d |
"tr"e>fg dcB edA | BGG dBd "tr"g2 :|

